src/pos-icons/dice-d10-outline.svg

<svg height="24" viewBox="0 0 24 24" width="24" xmlns="http://www.w3.org/2000/svg"><path d="m21.5 10.8c.6.7.6 1.7 0 2.4l-8.3 8.3c-.7.7-1.7.7-2.4 0l-8.3-8.3c-.7-.7-.7-1.7 0-2.4l8.3-8.3c.7-.7 1.7-.7 2.4 0zm-1.2 1.2-8.3-8.3-8.3 8.3 8.3 8.3zm-9.92 3.79h-1.5v-5.79l-1.8.55v-1.23l3.14-1.12h.16zm3.55-7.79a2.57 2.57 0 0 1 2.57 2.57v2.64c0 1.42-1.15 2.57-2.57 2.57-1.43 0-2.57-1.15-2.57-2.57v-2.64a2.57 2.57 0 0 1 2.57-2.57m-.01 1.44a1.06 1.06 0 0 0 -1.06 1.06v2.77a1.06 1.06 0 0 0 1.06 1.06c.58 0 1.08-.48 1.08-1.06v-2.77c0-.59-.5-1.06-1.08-1.06z"/></svg>

<?xml version="1.0" encoding="UTF-8"?><!DOCTYPE svg PUBLIC "-//W3C//DTD SVG 1.1//EN" "http://www.w3.org/Graphics/SVG/1.1/DTD/svg11.dtd"><svg xmlns="http://www.w3.org/2000/svg" xmlns:xlink="http://www.w3.org/1999/xlink" version="1.1" id="mdi-dice-d10-outline" width="24" height="24" viewBox="0 0 24 24"><path d="M21.5,10.8C22.1,11.5 22.1,12.5 21.5,13.2L13.2,21.5C12.5,22.2 11.5,22.2 10.8,21.5L2.5,13.2C1.8,12.5 1.8,11.5 2.5,10.8L10.8,2.5C11.5,1.8 12.5,1.8 13.2,2.5L21.5,10.8M20.3,12L12,3.7L3.7,12L12,20.3L20.3,12M10.38,15.79H8.88V10L7.08,10.55V9.32L10.22,8.2H10.38V15.79M13.93,8A2.57,2.57 0 0,1 16.5,10.57V13.21C16.5,14.63 15.35,15.78 13.93,15.78C12.5,15.78 11.36,14.63 11.36,13.21V10.57A2.57,2.57 0 0,1 13.93,8M13.92,9.44A1.06,1.06 0 0,0 12.86,10.5V13.27A1.06,1.06 0 0,0 13.92,14.33C14.5,14.33 15,13.85 15,13.27V10.5C15,9.91 14.5,9.44 13.92,9.44Z" /></svg>
